icon/lg/eslint.svg

<?xml version="1.0" encoding="UTF-8" standalone="no"?>
<svg viewBox="0 0 256 225" version="1.1" xmlns="http://www.w3.org/2000/svg" xmlns:xlink="http://www.w3.org/1999/xlink" preserveAspectRatio="xMidYMid" height="1em" width="1em">
  <g>
    <path d="M77.9645944,80.5683518 L126.534904,52.5264993 C127.750365,51.8245002 129.248632,51.8245002 130.464093,52.5264993 L179.035406,80.5683518 C180.249864,81.2703508 181,82.5670433 181,83.9710413 L181,140.054746 C181,141.457742 180.249864,142.755437 179.035406,143.458439 L130.464093,171.500291 C129.248632,172.20229 127.750365,172.20229 126.534904,171.500291 L77.9645944,143.458439 C76.7491332,142.75644 76,141.458744 76,140.054746 L76,83.9710413 C76.0010029,82.5670433 76.7501361,81.2703508 77.9645944,80.5683518" fill="#8080F2"/>
    <path d="M254.4167,107.416596 L196.323141,6.34980392 C194.212911,2.69552941 190.314709,-1.42108547e-14 186.095253,-1.42108547e-14 L69.9061271,-1.42108547e-14 C65.6856677,-1.42108547e-14 61.7864612,2.69552941 59.6762315,6.34980392 L1.58267227,107.193725 C-0.527557422,110.849004 -0.527557422,115.462024 1.58267227,119.117302 L59.6762315,219.355859 C61.7864612,223.010133 65.6856677,224.878431 69.9061271,224.878431 L186.094249,224.878431 C190.313705,224.878431 194.212911,223.066353 196.322137,219.411075 L254.415696,119.008878 C256.527934,115.355608 256.527934,111.070871 254.4167,107.416596 L254.4167,107.416596 Z M206.312097,156.016439 C206.312097,157.502243 205.417609,158.876612 204.129585,159.620518 L130.130998,202.31429 C128.843979,203.057192 127.231691,203.057192 125.944672,202.31429 L51.8888615,159.620518 C50.6018422,158.876612 49.7013303,157.503247 49.7013303,156.016439 L49.7013303,70.6278902 C49.7013303,69.1410824 50.5887913,67.7677176 51.8768145,67.0238118 L125.87239,24.3300392 C127.159409,23.5861333 128.769689,23.5861333 130.056708,24.3300392 L204.117538,67.0238118 C205.405562,67.7677176 206.312097,69.1410824 206.312097,70.6278902 L206.312097,156.016439 L206.312097,156.016439 Z" fill="#4B32C3"/>
  </g>
</svg>

<svg width="256" height="225" xmlns="http://www.w3.org/2000/svg" preserveAspectRatio="xMidYMid"><path d="m77.965 80.568 48.57-28.042a3.929 3.929 0 0 1 3.93 0l48.57 28.042A3.932 3.932 0 0 1 181 83.971v56.084c0 1.403-.75 2.7-1.965 3.403l-48.57 28.042a3.929 3.929 0 0 1-3.93 0l-48.57-28.042A3.931 3.931 0 0 1 76 140.055V83.97c.001-1.404.75-2.7 1.965-3.403" fill="#8080F2"/><path d="M254.417 107.417 196.323 6.35C194.213 2.696 190.315 0 186.095 0H69.906c-4.22 0-8.12 2.696-10.23 6.35L1.583 107.194c-2.11 3.655-2.11 8.268 0 11.923l58.093 100.239c2.11 3.654 6.01 5.522 10.23 5.522h116.188c4.22 0 8.119-1.812 10.228-5.467l58.094-100.402c2.112-3.653 2.112-7.938 0-11.592Zm-48.105 48.6c0 1.485-.894 2.86-2.182 3.604l-73.999 42.693a4.21 4.21 0 0 1-4.186 0l-74.056-42.693c-1.287-.744-2.188-2.118-2.188-3.605V70.628c0-1.487.888-2.86 2.176-3.604l73.995-42.694a4.202 4.202 0 0 1 4.185 0l74.06 42.694c1.289.744 2.195 2.117 2.195 3.604v85.388Z" fill="#4B32C3"/></svg>
